X: 1
T: Assembly of Lovers
O: Walsh (1766-1824)
B: Walsh V.W.4758
R: jig
Z: 2005 John Chambers <jc@trillian.mit.edu>
M: 6/8
L: 1/8
K: F
|: "F"ABA c2f | "Bb"fed "C7"c2c | "F"FGF "Dm"A2d | "C7"c2B "F"AGF \
|  "F"ABA c2f | "Bb"fed "G7"c2=B | "C"cde "G7"fed | "C"c3- c3 :|
|: "C"gag g2c | "F"aga "C"g2c | "C"gag g2c | "C7"BAG A2G \
| "F"FGF A2f | "Bb"fed "C7"c2B | "F"AGF "C7"C2E | "F"F3- F3 :|
